src/components/Careers/InterviewProcess/images/offer.svg

<svg xmlns="http://www.w3.org/2000/svg" xmlns:xlink="http://www.w3.org/1999/xlink" width="79" height="82" version="1.1" viewBox="0 0 79 82"><title>offer</title><desc>Created with Sketch.</desc><defs><path id="path-1" d="M31.5377,1.0887 C30.2212,0.8891 28.8731,0.7856 27.5008,0.7856 C12.7464,0.7856 0.7856,12.7464 0.7856,27.5008 C0.7856,28.8731 0.8891,30.2212 1.0887,31.5377 L31.5377,1.0887 Z M2.607,37.2158 C3.5629,39.6635 4.8694,41.9356 6.4648,43.9704 L43.9704,6.4648 C41.9356,4.8694 39.6635,3.5629 37.2158,2.607 L2.607,37.2158 Z M21.4926,53.5377 C19.3059,53.0352 17.2218,52.2643 15.2766,51.2615 L51.2615,15.2766 C52.2643,17.2218 53.0352,19.3059 53.5377,21.4926 L21.4926,53.5377 Z M26.2929,54.1892 C26.6933,54.207 27.096,54.216 27.5008,54.216 C42.2552,54.216 54.216,42.2552 54.216,27.5008 C54.216,27.096 54.207,26.6933 54.1892,26.2929 L26.2929,54.1892 Z"/></defs><g id="Page-1" fill="none" fill-rule="evenodd" stroke="none" stroke-width="1"><g id="offer" transform="translate(-15.000000, -15.000000)"><g id="Group"><rect id="Rectangle" width="108.132" height="108.132" x="0" y="0" fill-rule="nonzero" rx="9.403"/><rect id="Rectangle" width="105.132" height="105.132" x="1.5" y="1.5" rx="7.903"/></g><circle id="Oval" cx="53.5" cy="53.5" r="33.5" fill="#F7A501" fill-opacity=".4" fill-rule="nonzero"/><circle id="Oval" cx="53.5" cy="53.5" r="32.212" stroke="#F7A501" stroke-opacity=".4" stroke-width="2.577"/><circle id="Oval" cx="53.501" cy="53.501" r="26.715" fill="#F7A501" fill-opacity=".4" fill-rule="nonzero"/><circle id="Oval" cx="53.501" cy="53.501" r="25.688" stroke="#F7A501" stroke-opacity=".4" stroke-width="2.055"/><path id="Shape" fill="#F7A501" fill-opacity=".4" d="M57.5377,27.0887 C56.2212,26.8891 54.8731,26.7856 53.5008,26.7856 C38.7464,26.7856 26.7856,38.7464 26.7856,53.5008 C26.7856,54.8731 26.8891,56.2212 27.0887,57.5377 L57.5377,27.0887 Z M28.607,63.2158 C29.5629,65.6635 30.8694,67.9356 32.4648,69.9704 L69.9704,32.4648 C67.9356,30.8694 65.6635,29.5629 63.2158,28.607 L28.607,63.2158 Z M47.4926,79.5377 C45.3059,79.0352 43.2218,78.2643 41.2766,77.2615 L77.2615,41.2766 C78.2643,43.2218 79.0352,45.3059 79.5377,47.4926 L47.4926,79.5377 Z M52.2929,80.1892 C52.6933,80.207 53.096,80.216 53.5008,80.216 C68.2552,80.216 80.216,68.2552 80.216,53.5008 C80.216,53.096 80.207,52.6933 80.1892,52.2929 L52.2929,80.1892 Z"/><g id="Clipped" transform="translate(26.000000, 26.000000)"><mask id="mask-2" fill="#fff"><use xlink:href="#path-1"/></mask><path id="Shape" fill="#F7A501" fill-opacity=".4" fill-rule="nonzero" d="M31.5377,1.0887 L32.9909,2.5418 L35.8664,-0.3337 L31.8457,-0.9431 L31.5377,1.0887 Z M1.0887,31.5377 L-0.9431,31.8457 L-0.3337,35.8664 L2.5418,32.9909 L1.0887,31.5377 Z M6.4648,43.9704 L4.8475,45.2383 L6.2782,47.0632 L7.9179,45.4235 L6.4648,43.9704 Z M2.607,37.2158 L1.1539,35.7627 L0.2042,36.7124 L0.6928,37.9634 L2.607,37.2158 Z M43.9704,6.4648 L45.4235,7.9179 L47.0632,6.2782 L45.2383,4.8475 L43.9704,6.4648 Z M37.2158,2.607 L37.9634,0.6928 L36.7124,0.2042 L35.7627,1.1539 L37.2158,2.607 Z M15.2766,51.2615 L13.8235,49.8084 L11.8334,51.7985 L14.335,53.0881 L15.2766,51.2615 Z M21.4926,53.5377 L21.0323,55.5405 L22.1412,55.7953 L22.9457,54.9908 L21.4926,53.5377 Z M51.2615,15.2766 L53.0881,14.335 L51.7985,11.8334 L49.8084,13.8235 L51.2615,15.2766 Z M53.5377,21.4926 L54.9908,22.9457 L55.7953,22.1412 L55.5405,21.0323 L53.5377,21.4926 Z M26.2929,54.1892 L24.8397,52.7361 L21.541,56.0348 L26.2015,56.2422 L26.2929,54.1892 Z M54.1892,26.2929 L56.2422,26.2015 L56.0348,21.541 L52.7361,24.8398 L54.1892,26.2929 Z M27.5008,2.8407 C28.7697,2.8407 30.0148,2.9363 31.2298,3.1205 L31.8457,-0.9431 C30.4276,-1.1581 28.9765,-1.2694 27.5008,-1.2694 L27.5008,2.8407 Z M2.8407,27.5008 C2.8407,13.8814 13.8814,2.8407 27.5008,2.8407 L27.5008,-1.2694 C11.6115,-1.2694 -1.2694,11.6115 -1.2694,27.5008 L2.8407,27.5008 Z M3.1205,31.2298 C2.9363,30.0148 2.8407,28.7697 2.8407,27.5008 L-1.2694,27.5008 C-1.2694,28.9765 -1.1581,30.4276 -0.9431,31.8457 L3.1205,31.2298 Z M30.0846,-0.3645 L-0.3645,30.0846 L2.5418,32.9909 L32.9909,2.5418 L30.0846,-0.3645 Z M8.082,42.7025 C6.6087,40.8234 5.403,38.7262 4.5212,36.4682 L0.6928,37.9634 C1.7228,40.6007 3.1301,43.0478 4.8475,45.2383 L8.082,42.7025 Z M42.5173,5.0116 L5.0116,42.5173 L7.9179,45.4235 L45.4235,7.9179 L42.5173,5.0116 Z M36.4682,4.5212 C38.7262,5.403 40.8234,6.6087 42.7025,8.082 L45.2383,4.8475 C43.0478,3.1301 40.6007,1.7228 37.9634,0.6928 L36.4682,4.5212 Z M4.0601,38.6689 L38.6689,4.0601 L35.7627,1.1539 L1.1539,35.7627 L4.0601,38.6689 Z M14.335,53.0881 C16.4304,54.1683 18.6761,54.999 21.0323,55.5405 L21.9529,51.5349 C19.9358,51.0713 18.0132,50.3602 16.2183,49.4349 L14.335,53.0881 Z M49.8084,13.8235 L13.8235,49.8084 L16.7297,52.7146 L52.7146,16.7297 L49.8084,13.8235 Z M55.5405,21.0323 C54.999,18.6761 54.1683,16.4304 53.0881,14.335 L49.4349,16.2183 C50.3602,18.0132 51.0713,19.9358 51.5349,21.9529 L55.5405,21.0323 Z M22.9457,54.9908 L54.9908,22.9457 L52.0846,20.0395 L20.0395,52.0846 L22.9457,54.9908 Z M26.2015,56.2422 C26.6323,56.2614 27.0655,56.271 27.5008,56.271 L27.5008,52.161 C27.1265,52.161 26.7542,52.1527 26.3842,52.1362 L26.2015,56.2422 Z M27.5008,56.271 C43.3902,56.271 56.271,43.3902 56.271,27.5008 L52.161,27.5008 C52.161,41.1203 41.1203,52.161 27.5008,52.161 L27.5008,56.271 Z M56.271,27.5008 C56.271,27.0655 56.2614,26.6323 56.2422,26.2015 L52.1362,26.3842 C52.1527,26.7542 52.161,27.1265 52.161,27.5008 L56.271,27.5008 Z M52.7361,24.8398 L24.8397,52.7361 L27.746,55.6423 L55.6423,27.746 L52.7361,24.8398 Z" mask="url(#mask-2)"/></g><polygon id="Path" fill="#F7A501" fill-opacity=".4" fill-rule="nonzero" points="85.5 15 87.796 21.204 94 23.5 87.796 25.796 85.5 32 83.204 25.796 77 23.5 83.204 21.204"/><polygon id="Path" fill="#F7A501" fill-opacity=".4" fill-rule="nonzero" points="23.5 80 25.796 86.204 32 88.5 25.796 90.796 23.5 97 21.204 90.796 15 88.5 21.204 86.204"/></g></g></svg>

<svg xmlns:xlink="http://www.w3.org/1999/xlink" viewBox="0 0 79 82"><defs><path id="a" d="M31.538 1.089A26.918 26.918 0 0027.5.786C12.746.786.786 12.746.786 27.5c0 1.372.103 2.72.303 4.037l30.449-30.45zM2.607 37.216a26.677 26.677 0 003.858 6.754L43.97 6.465a26.677 26.677 0 00-6.754-3.858L2.607 37.216zm18.886 16.322a26.524 26.524 0 01-6.216-2.276L51.26 15.276a26.524 26.524 0 012.277 6.216L21.493 53.538zm4.8.651c.4.018.803.027 1.208.027 14.754 0 26.715-11.96 26.715-26.715 0-.405-.009-.808-.027-1.208L26.293 54.189z"/></defs><g fill="none" fill-rule="evenodd" transform="translate(-15 -15)"><rect width="108.132" height="108.132" rx="9.403"/><rect width="105.132" height="105.132" x="1.5" y="1.5" rx="7.903"/><circle cx="53.5" cy="53.5" r="33.5" fill="#F7A501" fill-opacity=".4" fill-rule="nonzero"/><circle cx="53.5" cy="53.5" r="32.212" stroke="#F7A501" stroke-opacity=".4" stroke-width="2.577"/><circle cx="53.501" cy="53.501" r="26.715" fill="#F7A501" fill-opacity=".4" fill-rule="nonzero"/><circle cx="53.501" cy="53.501" r="25.688" stroke="#F7A501" stroke-opacity=".4" stroke-width="2.055"/><path fill="#F7A501" fill-opacity=".4" d="M57.538 27.089a26.918 26.918 0 00-4.037-.303c-14.755 0-26.715 11.96-26.715 26.715 0 1.372.103 2.72.303 4.037l30.449-30.45zM28.607 63.216a26.677 26.677 0 003.858 6.754L69.97 32.465a26.677 26.677 0 00-6.754-3.858L28.607 63.216zm18.886 16.322a26.524 26.524 0 01-6.216-2.276L77.26 41.276a26.524 26.524 0 012.277 6.216L47.493 79.538zm4.8.651c.4.018.803.027 1.208.027 14.754 0 26.715-11.96 26.715-26.715 0-.405-.009-.808-.027-1.208L52.293 80.189z"/><g transform="translate(26 26)"><mask id="b" fill="#fff"><use xlink:href="#a"/></mask><path fill="#F7A501" fill-opacity=".4" fill-rule="nonzero" d="M31.538 1.089l1.453 1.453 2.875-2.876-4.02-.61-.308 2.033zM1.088 31.538l-2.031.308.61 4.02 2.875-2.875-1.453-1.453zM6.466 43.97l-1.617 1.268 1.43 1.825 1.64-1.64-1.453-1.453zm-3.858-6.754l-1.453-1.453-.95.95.489 1.25 1.914-.747zM43.97 6.465l1.453 1.453 1.64-1.64-1.825-1.43-1.268 1.617zm-6.754-3.858l.747-1.914-1.25-.489-.95.95 1.453 1.453zm-21.94 48.654l-1.453-1.453-1.99 1.99 2.502 1.29.942-1.827zm6.217 2.277l-.46 2.003 1.108.254.805-.804-1.453-1.453zM51.26 15.277l1.827-.942-1.29-2.502-1.99 1.99 1.453 1.454zm2.277 6.216l1.453 1.453.804-.805-.255-1.109-2.002.46zM26.293 54.189l-1.453-1.453-3.299 3.299 4.66.207.092-2.053zm27.896-27.896l2.053-.091-.207-4.661-3.299 3.299 1.453 1.453zM27.501 2.84c1.269 0 2.514.095 3.729.28l.616-4.064A28.974 28.974 0 0027.5-1.27v4.11zM2.84 27.5c0-13.62 11.04-24.66 24.66-24.66v-4.11C11.61-1.27-1.27 11.61-1.27 27.5h4.11zm.28 3.729a24.865 24.865 0 01-.28-3.73h-4.11c0 1.477.11 2.928.326 4.346l4.064-.616zM30.084-.365l-30.45 30.45 2.907 2.906L32.99 2.54 30.085-.363zM8.082 42.703a24.623 24.623 0 01-3.56-6.235l-3.83 1.495a28.736 28.736 0 004.155 7.275l3.235-2.535zM42.517 5.011L5.012 42.517l2.906 2.906L45.423 7.918l-2.906-2.906zm-6.049-.49a24.623 24.623 0 016.234 3.56l2.536-3.235A28.736 28.736 0 0037.963.694L36.468 4.52zM4.06 38.668L38.67 4.06l-2.906-2.906-34.61 34.609 2.907 2.906zm10.275 14.42a28.583 28.583 0 006.697 2.452l.92-4.006a24.473 24.473 0 01-5.734-2.1l-1.883 3.653zm35.473-39.266L13.824 49.808l2.906 2.907L52.715 16.73l-2.907-2.907zm5.733 7.21a28.583 28.583 0 00-2.453-6.698l-3.653 1.883a24.473 24.473 0 012.1 5.735l4.006-.92zM22.946 54.99L54.99 22.946l-2.906-2.907-32.046 32.046 2.907 2.906zm3.255 1.251c.431.02.864.029 1.3.029v-4.11c-.375 0-.747-.008-1.117-.025l-.183 4.106zm1.3.029c15.89 0 28.77-12.88 28.77-28.77h-4.11c0 13.62-11.04 24.66-24.66 24.66v4.11zm28.77-28.77c0-.436-.01-.869-.029-1.3l-4.106.183c.017.37.025.742.025 1.117h4.11zm-3.535-2.661L24.84 52.736l2.906 2.906 27.896-27.896-2.906-2.906z" mask="url(#b)"/></g><path fill="#F7A501" fill-opacity=".4" fill-rule="nonzero" d="M85.5 15l2.296 6.204L94 23.5l-6.204 2.296L85.5 32l-2.296-6.204L77 23.5l6.204-2.296zm-62 65l2.296 6.204L32 88.5l-6.204 2.296L23.5 97l-2.296-6.204L15 88.5l6.204-2.296z"/></g></svg>
